**kern	**kern	**kern
*staff3	*staff2	*staff1
*tb32	*tb32	*tb32
*clefF4	*clefF4	*clefG2
*k[f#c#g#]	*k[f#c#g#]	*k[f#c#g#]
*M2/4	*M2/4	*M2/4
*A:	*A:	*A:
8AAL	4E]	8eL
8CJ)	.	[8fJ
=252	=252	=252
(8GG#L	2E	4f]
8BBJ	.	.
8GG#L	.	8eL
8BBJ)	.	8dJ
=253	=253	=253
(8AAL	2E	8cL
8CJ	.	8g#J
8AAL	.	8aL
8CJ)	.	[8fJ
=254	=254	=254
(8GG#L	[2E	8f]
8BBJ	.	4e
8GG#L	.	.
8BBJ)	.	8d
=255	=255	=255
4AA	8EL]	4c
.	(8EJ	.
8r	4D	4G# 4B
8EE	.	.
=256	=256	=256
8r	4C)	4A)
4.FF	.	.
.	(8C#L	([4A 4a
.	8DJ	.
=257	=257	=257
8r	4.E	4A] 4c
4.EE	.	.
.	.	4G# 4B
.	8D	.
=258	=258	=258
8r	4C)	4A)
4.FF	.	.
.	(8C#L	([4A 4a
.	8DJ	.
=259	=259	=259
8r	4.E	4A] 4c
4.EE	.	.
.	.	4G# 4B
.	8D)	.
=	=	=
4.AA;	4.C;	4.A;)
*||	*||	*||
*-	*-	*-
